icons/tac_fill.svg

<svg width="48" height="48" viewBox="0 0 48 48" fill="none" xmlns="http://www.w3.org/2000/svg">
<path d="M24 25C26.2091 25 28 23.2091 28 21C28 18.7909 26.2091 17 24 17C21.7909 17 20 18.7909 20 21C20 23.2091 21.7909 25 24 25Z" fill="black"/>
<path fill-rule="evenodd" clip-rule="evenodd" d="M7 23C7 26.9422 8.34188 30.5711 10.5938 33.4546L9.33125 36.4435C8.21731 39.0806 10.1533 42 13.016 42H34.9841C37.8468 42 39.7828 39.0806 38.6688 36.4435L37.4063 33.4546C39.6581 30.571 41 26.9422 41 23C41 13.6112 33.3888 6 24 6C14.6112 6 7 13.6112 7 23ZM29 32L30.6 40H34.9841C36.4155 40 37.3834 38.5403 36.8265 37.2218L32.0995 26.0313C31.7867 25.2908 31.0609 24.8096 30.2571 24.8096H28.6357C29.1165 24.2252 29.489 23.5483 29.7224 22.8096H30.2571C31.0615 22.8096 31.8269 23.0506 32.4692 23.4769C32.5414 23.0304 32.5789 22.5722 32.5789 22.1053C32.5789 17.3963 28.7616 13.5789 24.0526 13.5789C19.3437 13.5789 15.5263 17.3963 15.5263 22.1053C15.5263 22.5508 15.5605 22.9884 15.6264 23.4155C16.2484 23.0275 16.978 22.8096 17.743 22.8096H18.2777C18.5111 23.5483 18.8836 24.2252 19.3644 24.8096H17.743C16.9392 24.8096 16.2134 25.2908 15.9006 26.0313L11.1736 37.2218C10.6167 38.5403 11.5846 40 13.016 40H17.4L19 32H18.4145L16.423 37.9743C16.1611 38.7603 15.3116 39.185 14.5257 38.923C13.7397 38.6611 13.315 37.8116 13.577 37.0257L16.1211 29.3932C16.5975 27.964 17.935 27 19.4415 27H28.5585C30.065 27 31.4025 27.964 31.8789 29.3932L34.423 37.0257C34.685 37.8116 34.2603 38.6611 33.4743 38.923C32.6884 39.185 31.8389 38.7603 31.577 37.9743L29.5855 32H29ZM19.8157 11.6694C21.1861 11.113 22.6528 10.832 24.1318 10.8424C25.6109 10.8528 27.0734 11.1544 28.4359 11.73L29.2143 9.8877C27.6098 9.20986 25.8876 8.85468 24.1459 8.84243C22.4042 8.83019 20.6771 9.16111 19.0633 9.81632L19.8157 11.6694Z" fill="black"/>
</svg>

<svg
  xmlns="http://www.w3.org/2000/svg"
  width="24"
  height="24"
  viewBox="0 0 24 24"
  fill="none"
  stroke="currentColor"
  stroke-width="2"
  stroke-linecap="round"
  stroke-linejoin="round"
>
  <path d="M24 25a4 4 0 1 0 0-8 4 4 0 0 0 0 8" />
  <path
    fill-rule="evenodd"
    d="M7 23c0 3.942 1.342 7.571 3.594 10.455L9.33 36.444C8.217 39.08 10.153 42 13.016 42h21.968c2.863 0 4.799-2.92 3.685-5.556l-1.263-2.99A16.93 16.93 0 0 0 41 23c0-9.389-7.611-17-17-17S7 13.611 7 23m22 9 1.6 8h4.384a2 2 0 0 0 1.843-2.778L32.1 26.032a2 2 0 0 0-1.843-1.222h-1.621a6 6 0 0 0 1.086-2h.535c.804 0 1.57.24 2.212.667q.109-.671.11-1.372a8.526 8.526 0 1 0-16.953 1.31 4 4 0 0 1 2.117-.605h.535a6 6 0 0 0 1.086 2h-1.621a2 2 0 0 0-1.842 1.221l-4.727 11.19A2 2 0 0 0 13.016 40H17.4l1.6-8h-.585l-1.992 5.974a1.5 1.5 0 1 1-2.846-.948l2.544-7.633A3.5 3.5 0 0 1 19.441 27h9.118a3.5 3.5 0 0 1 3.32 2.393l2.544 7.633a1.5 1.5 0 1 1-2.846.948L29.585 32zm-9.184-20.33a11.26 11.26 0 0 1 8.62.06l.778-1.842a13.26 13.26 0 0 0-10.15-.072z"
    clip-rule="evenodd"
  />
</svg>
